X:85
M:6/8
L:1/8
Q:3/8=110
K:C
c2 c dcd|efe g2 g|f2 f e2 e|dcd c2:|
|:e2 e dcB|cBA G2 D|G2 B A2 c|B2 A B2 G|\
e2 e edc|e^fg d2 d|ede ^fef|g3-g2 e/f/|
gec cde|fdc BAG|ABc def|edc Bef|\
gec cde|fdc BAG|ABc GcB|c3C3:|

